X:1
T:Fort Collins, 11.11.11.11
T:Fort Collins, 11.11.11.11
T:Ira David Sankey, 1885
T:Public Domain Courtesy of the Cyber Hymnal™
C:Ira David Sankey, 1885
Z:Public Domain
Z:Courtesy of the Cyber Hymnal™
%%score ( 1 2 ) ( 3 4 )
L:1/8
Q:1/4=108
M:4/4
K:Ab
V:1 treble 
V:2 treble 
V:3 bass 
V:4 bass 
V:1
 [CE]2 [CE]2 [DE]2 [CE]2 | [FA]4 [FA]4 | [FB]2 [FB]2 [EG]2 [EG]2 | [EA]8 | %4
 [CE]2 [CE]2 [DE]2 [CE]2 | [CA]4 [Ec]4 | [EB]2 [EA]2 [EG]2 [=DF]2 | E8 | E2 [EG]2 [GB]2 [Gd]2 | %9
 [Gd]4 [Ac]4 | [Ec]2 [EA]2 [Ee]2 [Ac]2 | ([Ac]4 [GB]4) | A2 [_Gc]2 [Gc]2 [Ge]2 | %13
 [Fe]2 [Fd]2 [FA]2 [_FB]2 | c4 [GB]4 | A8 |] %16
V:2
 x8 | x8 | x8 | x8 | x8 | x8 | x8 | E8 | E2 x6 | x8 | x8 | x8 | A2 x6 | x8 | (E2 A2) x4 | A8 |] %16
V:3
 A,2 A,2 [G,B,]2 A,2 | [F,C]4 [F,C]4 | [D,D]2 [D,D]2 [E,B,]2 [E,D]2 | [A,,C]8 | %4
 A,2 A,2 [G,B,]2 A,2 | [F,A,]4 [A,,A,]4 | [B,,G,]2 [B,,C]2 [B,,B,]2 [B,,A,]2 | [E,G,]8 | %8
 [E,G,]2 [E,B,]2 [E,E]2 [E,B,]2 | [E,B,]4 A,4 | [A,C]2 [A,,C]2 [C,A,]2 E2 | (E6 D2) | %12
 [F,C]2 [E,A,]2 [E,A,]2 [A,,A,]2 | [D,A,]2 [D,A,]2 [D,A,]2 [D,A,]2 | (A,2 C2) (E2 D2) | [A,,C]8 |] %16
V:4
 A,2 A,2 A,2 x2 | x8 | x8 | x8 | A,2 A,2 A,2 x2 | x8 | x8 | x8 | x8 | x4 A,4 | x6 (A,,C,) | E,8 | %12
 x8 | x8 | E,4 E,4 | x8 |] %16

